X:107
T:Pat Kenny's Polka
B:Terry "Cuz" Teahan "Sliabh Luachra on Parade" 1980
Z:Patrick Cavanagh
M:2/4
L:1/8
R:Polka
K:D
| de/d/ BA | df a2 | bf af | ed BA | 
de/d/ BA | df a2 | bb af | ef/e/ d2 :| 
| a2 af/a/ | ba fd | g2 gf/g/ | ba fd | 
a2 af/a/ | ba fd | gf af | eg/e/ d2 :|| 

